X:1
T:Title
%%score 1 2 3 4
L:1/8
Q:1/4=96
M:2/2
K:G
V:1 treble nm="MusicXML Part"
V:2 treble nm="MusicXML Part"
V:3 treble-8 nm="MusicXML Part"
V:4 bass nm="MusicXML Part"
V:1
 z4 z2 A2 | A4 D2 ^A2 | ^A2 D2 D2 B2 | B3 E E4 | z2 G2 G4 | F4 A4 | G4 z2 F2 | G8 | B,8 | c6 A2 | %10
w: Non|cla- mor, non|cla- * mor, non|cla- * mor,|sed a-|mor, a-|mor, sed|a-|mor|So- *|
 F4 D4 | d8- | d4 G4 | F4 E2 E2 | DEDE DEDF | GA G2 EFEF | GAGA B4- | B4 A4 | G4 z2 A2 | %19
w: * nat,|so-|* nat,|so- nat in|au- * * * * * re _|De- * i, au- * * *|* * re _ De-||i. Non|
 A4 D2 ^A2 | ^A2 D2 D2 B2 | B3 E E4 | z2 G2 G4 | F4 A4 | G4 z2 F2 | G8 | B,8 | c6 A2 | F4 D4 | %29
w: cla- mor, non|cla- * mor, non|cla- * mor,|sed a-|mor, a-|mor, sed|a-|mor|So- *|* nat,|
 d8- | d4 G4 | F4 E2 E2 | DEDE DEDF | GA G2 EFEF | GAGA B4- |"^i." B8 | A8 | B8 |] %38
w: so-|* nat,|so- nat in|au- * * * * * re _|De- * i, au- * * *|* * re _ De-|||i.|
V:2
 z8 | z8 | z8 | z8 | z8 | z2 A2 A4 | D2 ^A2 A2 D2 | D2 B2 B3 E | E4 z2 G2 | G4 F4 | A4 G4 | %11
w: |||||Non cla-|mor, non cla- *|mor, non cla- *|mor, sed|a- mor,|a- mor,|
 z2 F2 G4- | G4 B,4- | B,4 c4- | c2 A2 F4 | D4 d4- | d8 | G4 F4 | E2 E2 DEDE | DEDF GA G2 | %20
w: sed a-|* mor|_ So-||nat, so-||nat, so-|nat in au- * * *|* * re _ De- * i,|
 EFEF GAGA | B8 | A4 G4 | z2 A2 A4 | D2 ^A2 A2 D2 | D2 B2 B3 E | E4 z2 G2 | G4 F4 | A4 G4 | %29
w: au- * * * * * re _|De-|* i.|Non cla-|mor, non cla- *|mor, non cla- *|mor, sed|a- mor,|a- mor,|
 z2 F2 G4- | G4 B,4- | B,4 c4- | c2 A2 F4 | D4 d4- | d8 | G4 F4 | G6 F2 | G8 |] %38
w: sed a-|* mor|_ So-||nat, so-||nat, so-||nat|
V:3
 z8 | z8 | z8 | z8 | z8 | z8 | z8 | z8 | z8 | z4 z2 A2 | A4 D2 ^A2 | ^A2 D2 D2 B2 | B3 E E4 | %13
w: |||||||||Non|cla- mor, non|cla- * mor, non|cla- * mor,|
 z2 G2 G4 | F4 A4 | G4 z2 F2 | G8 | B,8 | c6 A2 | F4 D4 | d8- | d4 G4 | F4 E2 E2 | DEDE DEDF | %24
w: sed a-|mor, a-|mor, sed|a-|mor|So- *|* nat,|so-|* nat,|so- nat in|au- * * * * * re _|
 GA G2 EFEF | GAGA B4- | B4 A4 | G4 z2 A2 | A4 D2 ^A2 | ^A2 D2 D2 B2 | B3 E E4 | z2 G2 G4 | F4 A4 | %33
w: De- * i, au- * * *|* * re _ De-||i. Non|cla- mor, non|cla- * mor, non|cla- * mor,|sed a-|mor, a-|
 G4 z2 F2 | G8 | B,4 D4- | D4 D4 | D8 |] %38
w: mor, sed|a-|mor sed|_ a-|mor|
V:4
 z8 | z8 | z8 | z8 | z8 | z8 | z8 | z8 | z8 | z8 | z8 | z8 | z8 | z8 | z2 A,2 A,4 | %15
w: ||||||||||||||Non cla-|
 D,2 ^A,2 A,2 D,2 | D,2 B,2 B,3 E, | E,4 z2 G,2 | G,4 F,4 | A,4 G,4 | z2 F,2 G,4- | G,4 B,,4- | %22
w: mor, non cla- *|mor, non cla- *|mor, sed|a- mor,|a- mor,|sed a-|* mor|
 B,,4 C4- | C2 A,2 F,4 | D,4 D4- | D8 | G,4 F,4 | E,2 E,2 D,E,D,E, | D,E,D,F, G,A, G,2 | %29
w: _ So-||nat, so-||nat, so-|nat in au- * * *|* * re _ De- * i,|
 E,F,E,F, G,A,G,A, | B,8 | A,4 G,4 | z2 A,2 A,4 | D,2 ^A,2 A,2 D,2 | D,2 B,2 B,3 E, | E,4 B,,4 | %36
w: au- * * * * * re _|De-|* i.|Non cla-|mor, non cla- *|mor, non cla- *|mor, sed|
 D,8 | G,,8 |] %38
w: a-|mor,|

